symbols/web/1k_plus/materialsymbolssharp/1k_plus_wght600gradN25fill1_20px.svg

<svg xmlns="http://www.w3.org/2000/svg" height="20" width="20"><path d="M13.562 11.604h.834v-1.208h1.125v-.792h-1.125V8.396h-.834v1.208h-1.208v.792h1.208Zm-4.583.813h1.209v-1.875l1.458 1.875h1.458l-1.896-2.438 1.896-2.417h-1.458l-1.458 1.896V7.562H8.979Zm-2.437 0H7.75V7.562H5.271v1.209h1.271Zm-4.25 5.291V2.292h15.416v15.416Z"/></svg>

<svg xmlns="http://www.w3.org/2000/svg" height="20" width="20"><path d="M13.562 11.604H14.396V10.396H15.521V9.604H14.396V8.396H13.562V9.604H12.354V10.396H13.562ZM8.979 12.417H10.188V10.542L11.646 12.417H13.104L11.208 9.979L13.104 7.562H11.646L10.188 9.458V7.562H8.979ZM6.542 12.417H7.75V7.562H5.271V8.771H6.542ZM2.292 17.708V2.292H17.708V17.708Z"/></svg>
